X:125
T:Miss Patterson's Slipper / Roscommon  (r)
B:NFID.071
125miss_pa
S:JD
N:Parts C, D & E are actually "Roscommon Reel", which was the
usual second tune played after "Miss Patterson's" (a/k/a/ "Master
Crowley's"). The folks notating the tune evidently weren't aware
that Doherty (following Coleman) was playing two reels and not one.
L:1/8
M:C
R:reel
Q:360
K:Em
E3D|: B,GEG B,GEG|(3FAF DF A,DFD|B,GEG B,EGB|AFdF (3EEE E2|
B,GEG B,GEG|(3FAF DF A,DFD|B,GEG FGAB|AFdF (3EEE E2:|
P:B
ebgb faeg|fd^cd Adf^d|ebgb fae^c|dBAF (3EEE E2|
ebgb faeg|fcde f^gaf|GAB^c dcdB|AFdF (3EEE ED:|
P:C
EFGA BA^GB|AF (3FFF dFAF|EFGA B2dB|1 AFdF (3EEE ED:|\
[2 AFdF EBfg||
P:D
eB (3BBB efge|fa (3a^ga b=gaf|eB (3BBB efge|fagf egfg|
eB (3BBB efge|fa (3a^ga b=gaf|fagf egfe|dBAF EFGA||
P:E
B2BA B^cdB|AD (3FED ADFA|B2BA B^cdB|AF (3FEF E^cdc|
B2BA B^cdB|AD (3FED ADFA|d^cBA BcdB|AFdF (3EEE E2|]

%%%

